baseball-outline.svg

<svg fill="currentColor" viewBox="0 0 24 24"><path d="M8.17 2.76A10.1 10.1 0 0 1 12 2c1.31 0 2.61.26 3.83.76 1.21.5 2.31 1.24 3.24 2.17s1.67 2.03 2.17 3.24c.5 1.22.76 2.52.76 3.83 0 2.65-1.05 5.2-2.93 7.07A9.97 9.97 0 0 1 12 22a10.1 10.1 0 0 1-3.83-.76 10 10 0 0 1-3.24-2.17A9.97 9.97 0 0 1 2 12c0-2.65 1.05-5.2 2.93-7.07.93-.93 2.03-1.67 3.24-2.17m-.28 16.1a7.97 7.97 0 0 0 8.22 0l-1-1.73 1-.58A9.9 9.9 0 0 1 15.05 13H14v-2h1.05c.13-1.27.5-2.47 1.06-3.55l-1-.58 1-1.73a7.97 7.97 0 0 0-8.22 0l1 1.73-1 .57c.56 1.09.93 2.29 1.06 3.56H10v2H8.95c-.13 1.27-.5 2.47-1.06 3.56l1 .57zM5 15.88l.43-.75.73.43c.39-.79.66-1.65.77-2.56H6v-2h.93c-.11-.91-.38-1.77-.77-2.56l-.73.43L5 8.12a8.03 8.03 0 0 0 0 7.76m14-7.75-.43.74-.73-.43c-.39.79-.66 1.65-.77 2.56H18v2h-.93c.11.91.38 1.77.77 2.56l.73-.43.43.75a8.03 8.03 0 0 0 0-7.76Z"/></svg>

<svg  viewBox="0 0 24 24" fill="currentColor"><path  d="M8.17 2.76C9.39 2.26 10.69 2 12 2C13.31 2 14.61 2.26 15.83 2.76C17.04 3.26 18.14 4 19.07 4.93C20 5.86 20.74 6.96 21.24 8.17C21.74 9.39 22 10.69 22 12C22 14.65 20.95 17.2 19.07 19.07C17.2 20.95 14.65 22 12 22C10.69 22 9.39 21.74 8.17 21.24C6.96 20.74 5.86 20 4.93 19.07C3.05 17.2 2 14.65 2 12C2 9.35 3.05 6.8 4.93 4.93C5.86 4 6.96 3.26 8.17 2.76M7.89 18.86C9.12 19.6 10.54 20 12 20C13.46 20 14.88 19.6 16.11 18.86L15.11 17.13L16.11 16.55C15.55 15.47 15.18 14.27 15.05 13H14V11H15.05C15.18 9.73 15.55 8.53 16.11 7.45L15.11 6.87L16.11 5.14C14.88 4.4 13.46 4 12 4C10.54 4 9.12 4.4 7.89 5.14L8.89 6.87L7.89 7.44C8.45 8.53 8.82 9.73 8.95 11H10V13H8.95C8.82 14.27 8.45 15.47 7.89 16.56L8.89 17.13L7.89 18.86M5 15.88L5.43 15.13L6.16 15.56C6.55 14.77 6.82 13.91 6.93 13H6V11H6.93C6.82 10.09 6.55 9.23 6.16 8.44L5.43 8.87L5 8.12C4.35 9.3 4 10.63 4 12C4 13.37 4.35 14.7 5 15.88M19 8.13L18.57 8.87L17.84 8.44C17.45 9.23 17.18 10.09 17.07 11H18V13H17.07C17.18 13.91 17.45 14.77 17.84 15.56L18.57 15.13L19 15.88C19.65 14.7 20 13.37 20 12C20 10.63 19.65 9.3 19 8.12Z"/></svg>
